X: 1681
T: the Spring Garden   #1
R: hornpipe, reel
%S: s:2 b:16(8+8)
B: O'Neill's 1850 #1681
O: J.O'Neill
M: 2/4
L: 1/16
K: G
(3ABc \
| dfdf ecAF | GFGB AFDC | B,DGF D2c-B | (3ABG (3FGE D2 (3ABc |\
| dfdf ecAF | GFGB AFDC | B,DGF EcAF | G2G2 G2 :|
|: c-B |\
| AGAB cBcd | edef g2 (3def | gfed cBAG | Add^c d2 (3ABc |\
| dfdf ecAF | GFGB AFDC | B,DGF DcAF | G2G2 G2 :|
